src/icons/image-add.svg

<svg height="20" viewBox="0 0 20 20" width="20" xmlns="http://www.w3.org/2000/svg"><path d="m19 5a1 1 0 1 1 0 2h-2v2a1 1 0 1 1 -2 0v-2h-2a1 1 0 1 1 0-2h2v-2a1 1 0 1 1 2 0v2zm-5 14h-11c-1.654 0-3-1.346-3-3v-8c0-1.654 1.346-3 3-3h6a1 1 0 1 1 0 2h-6c-.552 0-1 .449-1 1v3.586l2.293-2.293a.999.999 0 0 1 1.414 0l3.293 3.293 1.293-1.293a.999.999 0 0 1 1.414 0l3.293 3.293v-1.664a1 1 0 1 1 2 0v3.078c0 1.654-1.346 3-3 3zm-12-3c0 .551.448 1 1 1h11a.97.97 0 0 0 .501-.154c-.071-.043-.147-.077-.208-.139l-3.293-3.293-1.293 1.293a.999.999 0 0 1 -1.414 0l-3.293-3.293-3 3z" fill="#c1cbd4" fill-rule="evenodd"/></svg>

<svg width="20" height="20" viewBox="0 0 20 20" xmlns="http://www.w3.org/2000/svg"><title>Image Add</title><path d="M19 5a1 1 0 1 1 0 2h-2v2a1 1 0 1 1-2 0V7h-2a1 1 0 1 1 0-2h2V3a1 1 0 1 1 2 0v2h2zm-5 14H3c-1.654 0-3-1.346-3-3V8c0-1.654 1.346-3 3-3h6a1 1 0 1 1 0 2H3c-.552 0-1 .449-1 1v3.586l2.293-2.293a.999.999 0 0 1 1.414 0L9 12.586l1.293-1.293a.999.999 0 0 1 1.414 0L15 14.586v-1.664a1 1 0 1 1 2 0V16c0 1.654-1.346 3-3 3zM2 16c0 .551.448 1 1 1h11a.97.97 0 0 0 .501-.154c-.071-.043-.147-.077-.208-.139L11 13.414l-1.293 1.293a.999.999 0 0 1-1.414 0L5 11.414l-3 3V16z" fill="#C1CBD4" fill-rule="evenodd"/></svg>
